!!!COM: Robert Schumann
!!!CNT: Deutscher
!!!TXO: Deutsche 
!!!OTL: Scho2ne Fremde
!!!OPR: Liederkreis
!!!OPS: Opus 39
!!!ONM: No. 6
!!!LYR: Eichendorff
!!!ENC: Brian Bice
!!!YOR: Sa2mtliche Lieder, vol. 1, C.F. Peters
!!!ODT: 1840/
!!NB: Vocal melody and text only encoded.
**kern	**silbe
*clefG2	*
*k[f#c#g#d#a#]	*
*M4/4	*
=1	=1
2r	.
4r	.
{4a#	{Es
=2	=2
4g#	rau-
8g#	-schen
8g#	die
4g#	Wip-
8g#	-fel
8cc#	und
=3	=3
4cc#	schau-
4f#}	-ern,}
4r	.
{4f#	{als
=4	=4
(8.f#	mach-
16b)	|
8b	-ten
8b	zu
4a#	die-
4g#	-ser
=5	=5
4f#}	Stund'}
{8.b	{um
16b	die
8a#	halb
8a#	ver-
8g#	-sunk-
16g#	-en-
16g#	-en
=6	=6
8f#	Mau-
8f#}	-ern}
8r	.
{8dd#	{die
8cc#	al-
8cc#	-ten
8b	Go2t-
16b	-ter
16b	die
=7	=7
4a#}	Rund'.}
4r	.
4r	.
{4cc#	{Hier
=8	=8
4b	hin-
8b	-ter
8b	den
(4b	Myr-
8ee)	|
8gg#	-ten-
=9	=9
4.gg#	-ba2u-
8ff#	|
4ee}	-men}
8r	.
{8b	{in
=10	=10
4.a#	heim-
8a#	-lich
4a#	da2m-
8dd#	-mern-
8ff#	-der
=11	=11
(4.ff#	Pracht,
8ee#	|
4dd#)}	|}
8r	.
{8a#	{was
=12	=12
4.g#	sprichst
8g#	du
4cc#	wirr,
8g#	wie
8g#	in
=13	=13
4g#	Tra2u-
4f#}	-men,}
4r	.
8r	.
{8f#	{zu
=14	=14
4f#	mir,
4b	phan-
4a#	-ta-
8g#	-sti-
8g#	-sche
=15	=15
[1f#	Nacht?
=16	=16
4f#]}	|}
4r	.
4r	.
8r	.
{8f#	{Es
=17	=17
4.f#	fun-
8f#	-keln
8f#	auf
8f#	mich
8f#	al-
8f#	-le
=18	=18
4a#	Ster-
4f#}	-ne}
4r	.
8r	.
{8b	{mit
=19	=19
4b	glu2-
8b	-hen-
8b	-dem
4.b	Lie-
8b	-bes-
=20	=20
2ff#}	-blick,}
4r	.
8r	.
{8b	{es
=21	=21
4.b	re-
8b	-det
4gg#	trun-
8ff#	-ken
8ff#	die
=22	=22
(4ee	Fer-
4dd#)	|
4cc#}	-ne}
{8b	{wie
8b	von
=23	=23
4b	ku2n-
8b	-fti-
8b	-gem
4..cc#	gro-
16b	-ssen
=24	=24
2b}	Glu2ck!}
2r	.
*-	*-
